Origami/32x32/apps/distributor-logo-ubuntu-mate.svg

<svg width="32" height="32" version="1.1" viewBox="0 0 32 32" xmlns="http://www.w3.org/2000/svg">
 <circle cx="16" cy="17" r="14" style="opacity:.2"/>
 <circle cx="16" cy="16" r="14" style="fill:#7ea043"/>
 <path d="m 18,7 v 6 l 5,-3 z m -2,1 a 9,9 0 0 0 -8.40625,5.791016 l 0.8789062,0.527343 A 8,8 0 0 1 16,9 8,8 0 0 1 17,9.0703125 V 8.0664062 A 9,9 0 0 0 16,8 Z m 0,3 a 6,6 0 0 0 -5.773438,4.371094 L 11.125,15.908203 A 5,5 0 0 1 16,12 5,5 0 0 1 17,12.101562 V 11.085938 A 6,6 0 0 0 16,11 Z m 6.900391,0.224609 -0.876953,0.527344 A 8,8 0 0 1 24,17 8,8 0 0 1 22.029297,22.251953 l 0.865234,0.519531 A 9,9 0 0 0 25,17 9,9 0 0 0 22.900391,11.224609 Z m -2.623047,1.574219 -0.888672,0.533203 A 5,5 0 0 1 21,17 5,5 0 0 1 19.390625,20.667969 l 0.888672,0.535156 A 6,6 0 0 0 22,17 6,6 0 0 0 20.277344,12.798828 Z M 6,14 v 6 l 5,-3 z m 5.126953,4.089844 -0.896484,0.537109 A 6,6 0 0 0 16,23 6,6 0 0 0 17,22.910156 V 21.894531 A 5,5 0 0 1 16,22 5,5 0 0 1 11.126953,18.089844 Z m -2.6562499,1.59375 -0.8691406,0.521484 A 9,9 0 0 0 16,26 9,9 0 0 0 17,25.939453 V 24.927734 A 8,8 0 0 1 16,25 8,8 0 0 1 8.4707031,19.683594 Z M 18,21 v 6 l 5,-3 z" style="opacity:.2"/>
 <path d="m18 6v6l5-3-5-3zm-2 1a9 9 0 0 0 -8.40625 5.791016l0.8789062 0.527343a8 8 0 0 1 7.5273438 -5.318359 8 8 0 0 1 1 0.0703125v-1.0039063a9 9 0 0 0 -1 -0.0664062zm0 3a6 6 0 0 0 -5.773438 4.371094l0.898438 0.537109a5 5 0 0 1 4.875 -3.908203 5 5 0 0 1 1 0.101562v-1.015624a6 6 0 0 0 -1 -0.085938zm6.900391 0.224609l-0.876953 0.527344a8 8 0 0 1 1.976562 5.248047 8 8 0 0 1 -1.970703 5.251953l0.865234 0.519531a9 9 0 0 0 2.105469 -5.771484 9 9 0 0 0 -2.099609 -5.775391zm-2.623047 1.574219l-0.888672 0.533203a5 5 0 0 1 1.611328 3.667969 5 5 0 0 1 -1.609375 3.667969l0.888672 0.535156a6 6 0 0 0 1.720703 -4.203125 6 6 0 0 0 -1.722656 -4.201172zm-14.277344 1.201172v6l5-3-5-3zm5.126953 4.089844l-0.896484 0.537109a6 6 0 0 0 5.769531 4.373047 6 6 0 0 0 1 -0.089844v-1.015625a5 5 0 0 1 -1 0.105469 5 5 0 0 1 -4.873047 -3.910156zm-2.6562499 1.59375l-0.8691406 0.521484a9 9 0 0 0 8.3984375 5.794922 9 9 0 0 0 1 -0.060547v-1.011719a8 8 0 0 1 -1 0.072266 8 8 0 0 1 -7.5292969 -5.316406zm9.5292969 1.316406v6l5-3-5-3z" style="fill:#ffffff"/>
 <path d="M 16 2 A 14 14 0 0 0 2 16 A 14 14 0 0 0 2.0214844 16.585938 A 14 14 0 0 1 16 3 A 14 14 0 0 1 29.978516 16.414062 A 14 14 0 0 0 30 16 A 14 14 0 0 0 16 2 z" style="fill:#ffffff;opacity:.2"/>
</svg>

<svg xmlns="http://www.w3.org/2000/svg" width="32" height="32" version="1.1" viewBox="0 0 32 32">
 <circle style="opacity:0.2" cx="16" cy="17" r="14"/>
 <circle style="fill:#7ea043" cx="16" cy="16" r="14"/>
 <path style="opacity:0.2" d="m 18,7 v 6 l 5,-3 z m -2,1 a 9,9 0 0 0 -8.40625,5.791016 l 0.8789062,0.527343 A 8,8 0 0 1 16,9 8,8 0 0 1 17,9.0703125 V 8.0664062 A 9,9 0 0 0 16,8 Z m 0,3 a 6,6 0 0 0 -5.773438,4.371094 L 11.125,15.908203 A 5,5 0 0 1 16,12 5,5 0 0 1 17,12.101562 V 11.085938 A 6,6 0 0 0 16,11 Z m 6.900391,0.224609 -0.876953,0.527344 A 8,8 0 0 1 24,17 8,8 0 0 1 22.029297,22.251953 l 0.865234,0.519531 A 9,9 0 0 0 25,17 9,9 0 0 0 22.900391,11.224609 Z m -2.623047,1.574219 -0.888672,0.533203 A 5,5 0 0 1 21,17 5,5 0 0 1 19.390625,20.667969 l 0.888672,0.535156 A 6,6 0 0 0 22,17 6,6 0 0 0 20.277344,12.798828 Z M 6,14 v 6 l 5,-3 z m 5.126953,4.089844 -0.896484,0.537109 A 6,6 0 0 0 16,23 6,6 0 0 0 17,22.910156 V 21.894531 A 5,5 0 0 1 16,22 5,5 0 0 1 11.126953,18.089844 Z m -2.6562499,1.59375 -0.8691406,0.521484 A 9,9 0 0 0 16,26 9,9 0 0 0 17,25.939453 V 24.927734 A 8,8 0 0 1 16,25 8,8 0 0 1 8.4707031,19.683594 Z M 18,21 v 6 l 5,-3 z"/>
 <path style="fill:#ffffff" d="M 18 6 L 18 12 L 23 9 L 18 6 z M 16 7 A 9 9 0 0 0 7.59375 12.791016 L 8.4726562 13.318359 A 8 8 0 0 1 16 8 A 8 8 0 0 1 17 8.0703125 L 17 7.0664062 A 9 9 0 0 0 16 7 z M 16 10 A 6 6 0 0 0 10.226562 14.371094 L 11.125 14.908203 A 5 5 0 0 1 16 11 A 5 5 0 0 1 17 11.101562 L 17 10.085938 A 6 6 0 0 0 16 10 z M 22.900391 10.224609 L 22.023438 10.751953 A 8 8 0 0 1 24 16 A 8 8 0 0 1 22.029297 21.251953 L 22.894531 21.771484 A 9 9 0 0 0 25 16 A 9 9 0 0 0 22.900391 10.224609 z M 20.277344 11.798828 L 19.388672 12.332031 A 5 5 0 0 1 21 16 A 5 5 0 0 1 19.390625 19.667969 L 20.279297 20.203125 A 6 6 0 0 0 22 16 A 6 6 0 0 0 20.277344 11.798828 z M 6 13 L 6 19 L 11 16 L 6 13 z M 11.126953 17.089844 L 10.230469 17.626953 A 6 6 0 0 0 16 22 A 6 6 0 0 0 17 21.910156 L 17 20.894531 A 5 5 0 0 1 16 21 A 5 5 0 0 1 11.126953 17.089844 z M 8.4707031 18.683594 L 7.6015625 19.205078 A 9 9 0 0 0 16 25 A 9 9 0 0 0 17 24.939453 L 17 23.927734 A 8 8 0 0 1 16 24 A 8 8 0 0 1 8.4707031 18.683594 z M 18 20 L 18 26 L 23 23 L 18 20 z"/>
 <path style="fill:#ffffff;opacity:0.2" d="M 16 2 A 14 14 0 0 0 2 16 A 14 14 0 0 0 2.0214844 16.585938 A 14 14 0 0 1 16 3 A 14 14 0 0 1 29.978516 16.414062 A 14 14 0 0 0 30 16 A 14 14 0 0 0 16 2 z"/>
</svg>
